X:100
T:Dowd's #9
C:John Dowd
D:"Cooley", track 15
M:4/4
R:reel
K:D
DFAF (3GFG EF|~D3 FA dABA|~F2 AF ~G3B|AGFD A,3E|
DF~F2 GFEF|DEFA dABG|FFAF GBdB|AGFD ED D2|
DFAF GFEF|D2 FA dABA|FFAF GBdB|AGFD EB,CD|
DFAF (3GFG EF|DEFA dABG|F2 AF GFGB|AGFD ED ~D2|
f~d3 gbag|f~d3 edBA|f~d3 gfec|dcde fddc|
dfaf (3gfg eg|fAdf edBA|(3GFG GE FAdB|AGFD ED D2|
f~d3 gbag|f~d3 edBA|f~d3 gfec|dcde fddc|
dfaf (3gfg eg|fAdf edBA|(3GFG GE (3F=FF F|AGFD ED D2:|
